X:1
T:Huddersfield
T:Madan
T:Huddersfield
C:Madan
%%score { ( 1 2 ) | ( 3 4 ) }
L:1/8
Q:1/2=120
M:3/2
K:F
V:1 treble nm="Piano" snm="Pno."
V:2 treble 
V:3 bass 
V:4 bass 
V:1
 F4 | c8 d4 | c8 F4 | (B4 A4) G4 | F8 E4 | F8 G4 | (A4 B4) A4 | G8 c4 | (A2 G2 F4) f4 | %9
 (d4 c4) A4 | (B2 A2 G4) F4 | G8 c4 | (F4 G4) A4 | (B4 A4) G4 | F8 |] %15
V:2
 F4 | F8 F4 | F8 D4 | (G4 F4) E4 | F8 C4 | C8 E4 | (F4 E4) F4 | E8 E4 | (E4 F4) F4 | F8 F4 | %10
 D8 F4 | (F4 E4) E4 | F8 F4 | F8 E4 | F8 |] %15
V:3
 A,4 | A,8 B,4 | C8 A,4 | (D4 C4) (C2 B,2) | A,8 G,4 | C8 C4 | C8 C4 | C8 C4 | C8 A,4 | %9
 (B,4 C4) C4 | (D2 C2 B,4) A,4 | C8 C4 | (C4 D4) C4 | (B,4 C4) (C2 B,2) | A,8 |] %15
V:4
 F,4 | F,8 B,,4 | A,,8 D,4 | (B,,4 C,4) C,4 | F,8 C,4 | A,,8 C,4 | (F,4 G,4) F,4 | C,8 C,4 | %8
 (C,2 B,,2 A,,4) F,4 | (B,4 A,4) F,4 | B,,8 D,4 | C,8 B,,4 | (A,,4 B,,4) C,4 | (D,4 C,4) C,4 | %14
 F,8 |] %15

